assets/icons/PhoneIcon.svg

<?xml version="1.0" encoding="UTF-8"?> <svg xmlns="http://www.w3.org/2000/svg" width="100" height="100" viewBox="0 0 100 100" fill="none"> <path d="M40.9761 59.5609C42.3361 60.9109 45.0661 63.4909 46.9761 63.9509C48.8861 64.4109 50.2261 63.3609 51.6861 62.1109C52.43 61.1706 53.5014 60.5456 54.6861 60.3609C56.6161 60.0109 62.0461 63.6209 63.3461 65.1609C67.3461 69.8609 63.7561 75.1609 58.4061 75.5709C51.7861 76.1209 42.9561 70.1009 36.7361 63.8709C30.5161 57.6409 24.4761 48.8709 25.0361 42.2009C25.4861 36.8509 30.7461 33.3009 35.4461 37.2609C36.9861 38.5609 40.5961 43.9909 40.2461 45.9209C40.0615 47.1056 39.4365 48.177 38.4961 48.9209C37.2461 50.3809 36.1961 51.7609 36.6561 53.6309C37.1161 55.5009 39.6161 58.2009 40.9761 59.5609Z" fill="white"></path> <path d="M58.9054 53.0318C58.5869 52.9699 58.2937 52.8155 58.0624 52.5878C57.8312 52.3601 57.6722 52.0693 57.6054 51.7518C57.1945 49.4547 56.1038 47.3337 54.4743 45.6632C52.8448 43.9928 50.7516 42.8497 48.4654 42.3818C48.1272 42.2941 47.8252 42.1019 47.6026 41.8326C47.3799 41.5632 47.2479 41.2305 47.2254 40.8818C47.219 40.7293 47.2498 40.5776 47.3152 40.4397C47.3806 40.3018 47.4785 40.1819 47.6006 40.0903C47.7227 39.9988 47.8652 39.9383 48.0159 39.9142C48.1666 39.89 48.3209 39.9029 48.4654 39.9518C51.3469 40.5824 53.9785 42.0486 56.031 44.167C58.0836 46.2854 59.466 48.9619 60.0054 51.8618C60.0496 52.0095 60.0563 52.1658 60.0251 52.3167C59.9938 52.4677 59.9256 52.6085 59.8264 52.7265C59.7272 52.8445 59.6003 52.936 59.457 52.9928C59.3137 53.0496 59.1585 53.0698 59.0054 53.0518L58.9054 53.0318Z" fill="white"></path> <path d="M66.317 54.3511C65.9831 54.2855 65.6774 54.119 65.4413 53.8739C65.2052 53.6289 65.0501 53.3172 64.997 52.9811C63.777 43.1911 57.897 36.8511 47.997 34.6411C47.6603 34.5539 47.3595 34.3632 47.137 34.0959C46.9145 33.8285 46.7816 33.498 46.757 33.1511C46.7495 33.0015 46.7779 32.8524 46.8397 32.716C46.9015 32.5796 46.995 32.46 47.1124 32.3671C47.2298 32.2741 47.3677 32.2106 47.5146 32.1817C47.6615 32.1528 47.8132 32.1595 47.957 32.2011C59.127 34.6711 66.047 42.1811 67.467 53.2611C67.4964 53.4083 67.4897 53.5604 67.4475 53.7044C67.4053 53.8485 67.3288 53.9802 67.2247 54.0882C67.1205 54.1963 66.9917 54.2776 66.8494 54.3251C66.707 54.3726 66.5552 54.385 66.407 54.3611L66.317 54.3511Z" fill="white"></path> <path d="M73.4666 55.461C73.1423 55.3988 72.844 55.2407 72.6104 55.0072C72.3769 54.7736 72.2188 54.4754 72.1566 54.151C69.4666 38.151 62.0566 30.171 47.4666 27.481C47.126 27.4066 46.8177 27.2262 46.5859 26.9657C46.3542 26.7052 46.2109 26.378 46.1766 26.031C46.1585 25.8817 46.1772 25.7302 46.2312 25.5898C46.2852 25.4495 46.3728 25.3244 46.4862 25.2258C46.5997 25.1271 46.7357 25.0577 46.8822 25.0238C47.0287 24.9898 47.1813 24.9923 47.3266 25.031C63.2666 27.961 71.6666 37.031 74.5766 54.311C74.6143 54.4572 74.6161 54.6103 74.5821 54.7574C74.548 54.9045 74.479 55.0412 74.3809 55.156C74.2828 55.2708 74.1585 55.3602 74.0185 55.4168C73.8785 55.4734 73.7269 55.4954 73.5766 55.481L73.4666 55.461Z" fill="white"></path> <rect x="1" y="1" width="98" height="98" stroke="white" stroke-width="2"></rect> </svg>

<svg xmlns="http://www.w3.org/2000/svg" width="100" height="100" fill="none"><path d="M40.976 59.56c1.36 1.35 4.09 3.93 6 4.39 1.91.46 3.25-.59 4.71-1.84a4.76 4.76 0 0 1 3-1.75c1.93-.35 7.36 3.26 8.66 4.8 4 4.7.41 10-4.94 10.41-6.62.55-15.45-5.47-21.67-11.7-6.22-6.23-12.26-15-11.7-21.67.45-5.35 5.71-8.9 10.41-4.94 1.54 1.3 5.15 6.73 4.8 8.66a4.76 4.76 0 0 1-1.75 3c-1.25 1.46-2.3 2.84-1.84 4.71.46 1.87 2.96 4.57 4.32 5.93ZM58.905 53.032a1.65 1.65 0 0 1-1.3-1.28 11.66 11.66 0 0 0-9.14-9.37 1.66 1.66 0 0 1-1.24-1.5.94.94 0 0 1 1.24-.93 15 15 0 0 1 11.54 11.91.93.93 0 0 1-1 1.19l-.1-.02Z" fill="#fff"/><path d="M66.317 54.351a1.66 1.66 0 0 1-1.32-1.37c-1.22-9.79-7.1-16.13-17-18.34a1.66 1.66 0 0 1-1.24-1.49.94.94 0 0 1 1.2-.95c11.17 2.47 18.09 9.98 19.51 21.06a.93.93 0 0 1-1.06 1.1l-.09-.01Z" fill="#fff"/><path d="M73.467 55.461a1.651 1.651 0 0 1-1.31-1.31c-2.69-16-10.1-23.98-24.69-26.67a1.65 1.65 0 0 1-1.29-1.45.92.92 0 0 1 1.15-1c15.94 2.93 24.34 12 27.25 29.28a.94.94 0 0 1-1 1.17l-.11-.02Z" fill="#fff"/><path stroke="#fff" stroke-width="2" d="M1 1h98v98H1z"/></svg>
